X: 07025
T: DAVE KAYNOR'S REEL
C: Bob McQuillen 16 June 89
B: Bob's Note Book 7 #25
%R: reel
Z: 2020 John Chambers <jc:trillian.mit.edu>
M: C
L: 1/8
K: D	% and A
fe \
| dAFA GBAG | FAFD EGFE | DFAd fdAF | GBAF EABc |
| dAFA GBAG | FAFD EGFE | DFAF EGBd | Acec d2 :|
K: A
|: cd \
| ecdB cAGA | EGBd cAGA | BABd cAce | ^defg e2c=d |
| ecdB cAGA | EGBd cAGA | FAdf ecAc | dBGB A2 :|
%%begintext align
%% It is a real pleasure
%% for me to dedicate this tune to a man who has
%% done so much to promote the contra dancing we
%% all love so much. I hope you enjoy this tune, Dave -
%% It comes to you with all good wishes from your friend, Bob
%%endtext

%%sep 1 1 500

%%sep 1 1 500

